assets/images/members/izenpe/izenpe.svg

<svg xmlns="http://www.w3.org/2000/svg" viewBox="0 0 132 132"><path fill-rule="evenodd" d="M0 26.37c0-3.46.68-6.89 2.01-10.09s3.27-6.11 5.72-8.56 5.36-4.39 8.56-5.71A26.3 26.3 0 0 1 26.38 0h79.18c3.46 0 6.89.68 10.09 2.01a26.28 26.28 0 0 1 14.27 14.27 26.3 26.3 0 0 1 2.01 10.09v79.18c0 3.46-.68 6.89-2 10.09-1.33 3.2-3.27 6.11-5.72 8.56s-5.36 4.4-8.56 5.72a26.3 26.3 0 0 1-10.09 2.01H26.38c-3.46 0-6.89-.68-10.1-2.01-3.2-1.32-6.1-3.27-8.55-5.72s-4.4-5.35-5.72-8.55A26.4 26.4 0 0 1 0 105.55zm20.52 59.21h-1.67v2h1.67zm0 4.65h-1.67v11.1h1.67zm4.49 11.1h12.53v-1.41H27.39l10.11-8.28v-1.41H25.46v1.41h9.63l-10.08 8.28zm30.87-5.25c.02-2.13-.27-3.59-.86-4.39-.18-.21-.38-.4-.59-.57a4.2 4.2 0 0 0-1.45-.74q-.405-.12-.81-.15l-.82-.09c-.28-.02-.56-.04-.83-.05-.28-.02-.55-.03-.83-.03-.28-.01-.55-.01-.83 0-2.95 0-4.76.31-5.67 1.1s-1.36 2.33-1.36 4.61.45 3.82 1.36 4.61c.84.73 2.74 1.1 5.69 1.1.33.01.67.01 1 0 .34-.01.67-.02 1.01-.05a16.904 16.904 0 0 0 1.99-.24c.4-.04.79-.15 1.15-.32.35-.18.68-.42.95-.71.28-.29.5-.63.65-1s.24-.76.25-1.16h-1.71c-.04.25-.11.49-.23.71-.11.22-.26.42-.44.59a2.273 2.273 0 0 1-1.33.62l-.78.09c-.26.02-.52.04-.78.05s-.52.02-.78.02-.52 0-.78-.01c-.31.02-.61.02-.92.02-.3-.01-.61-.02-.91-.05-.31-.02-.61-.06-.92-.1-.3-.04-.6-.1-.9-.16a2.37 2.37 0 0 1-1.12-.76c-.15-.17-.27-.37-.36-.58q-.135-.315-.18-.66c-.02-.14-.03-.28-.04-.42l-.03-.42c-.01-.14-.01-.29-.02-.43v-.42zm-12.19-1.35c.05-1.41.47-2.32 1.24-2.74.32-.11.65-.2.98-.28.33-.07.66-.13.99-.17.34-.05.68-.07 1.02-.08.33-.01.67 0 1.01.02.23-.01.46-.01.68-.01.23 0 .46.01.69.02l.68.03.68.06c.22.02.44.06.66.13.21.07.41.17.6.29.19.11.37.25.53.41s.29.34.41.53c.06.14.11.28.16.43.04.15.08.3.1.45q.045.225.06.45c.01.15.02.31.01.46zm17.46 6.6h1.67v-6.52c-.02-.3 0-.6.07-.9.08-.29.2-.57.36-.83.16-.25.36-.48.6-.67.23-.19.5-.34.78-.45.29-.09.59-.17.89-.24a9.6 9.6 0 0 1 1.84-.23c.3-.02.61-.02.92 0 2.03 0 3.34.26 3.92.78.12.15.23.31.32.48.08.17.16.35.21.53.05.19.09.38.1.57.02.19.01.38-.01.57v6.92h1.67v-7c.02-.24.02-.49 0-.73-.02-.25-.05-.49-.1-.73-.06-.24-.12-.47-.21-.7-.08-.23-.18-.45-.3-.67-.15-.19-.31-.37-.5-.53-.18-.16-.38-.3-.59-.42-.2-.12-.43-.22-.65-.3-.23-.07-.47-.13-.71-.16-.22-.04-.45-.07-.67-.09-.22-.03-.45-.05-.67-.06-.23-.02-.45-.03-.68-.03-.22-.01-.45-.01-.67 0-.29-.01-.59-.01-.88-.01-.3.01-.59.02-.88.04-.3.02-.59.05-.88.09s-.58.09-.87.14c-.28.07-.55.18-.8.31-.25.14-.49.31-.7.5-.2.2-.39.42-.54.66-.16.25-.28.51-.37.78v-2.2h-1.67zM80.13 106h1.67v-6.32c.13.22.28.43.45.61.17.19.37.35.58.49s.44.26.68.35c.24.08.49.14.74.17.26.04.51.07.77.1s.52.05.78.07l.78.03c.26 0 .52 0 .78-.01 2.99 0 4.84-.3 5.75-1.1s1.36-2.35 1.36-4.62-.45-3.81-1.36-4.6c-.84-.73-2.75-1.1-5.74-1.1q-.39-.015-.78 0c-.26 0-.52.01-.78.02-.26.02-.52.04-.78.07-.25.02-.51.05-.77.09-.25.03-.5.09-.74.17-.24.09-.47.21-.68.35-.22.14-.41.3-.59.49-.17.18-.32.39-.45.61v-1.64h-1.7zm7.09-14.52c2.5 0 4.04.27 4.61.81s.86 1.7.86 3.48c.03.28.04.57.02.86-.01.28-.05.57-.11.85-.05.28-.13.55-.24.82q-.15.405-.36.78c-.15.14-.31.27-.49.38-.17.11-.35.21-.54.29-.2.08-.39.14-.6.18-.2.04-.4.07-.61.07-.48.08-1.33.08-2.54.08-2.47 0-4-.25-4.57-.8s-.86-1.73-.86-3.55c-.03-.28-.04-.56-.02-.85.01-.28.05-.56.11-.83.06-.28.14-.55.24-.82.1-.26.22-.51.36-.76.15-.14.32-.27.49-.38s.36-.21.55-.28c.19-.08.39-.14.59-.18.21-.04.41-.07.62-.07.21-.02.42-.03.63-.04q.315-.03.63-.03c.21-.01.42-.01.63-.01.21-.01.42 0 .63 0zm26.24 4.6c.01-2.13-.27-3.59-.86-4.39-.18-.21-.38-.4-.59-.57a4.2 4.2 0 0 0-1.45-.74q-.405-.12-.81-.15l-.82-.09c-.28-.02-.56-.04-.83-.05-.28-.02-.55-.03-.83-.03-.28-.01-.55-.01-.83 0-2.95 0-4.76.31-5.67 1.1s-1.37 2.33-1.37 4.61.53 3.88 1.37 4.61 2.69 1.1 5.69 1.1c.33.01.67.01 1 0 .34-.01.67-.02 1.01-.05.33-.02.66-.05 1-.09.33-.05.66-.09.99-.15.4-.04.79-.15 1.15-.32.35-.18.68-.42.95-.71.28-.29.5-.63.65-1s.24-.76.25-1.16h-1.7c-.04.25-.11.49-.23.71-.11.22-.26.42-.44.59a2.273 2.273 0 0 1-1.33.62c-.26.03-.52.06-.78.08q-.39.045-.78.06c-.26.01-.52.02-.79.02-.26 0-.52 0-.78-.01-.3.02-.61.02-.92.02-.3-.01-.61-.02-.91-.05-.3-.02-.61-.06-.91-.1s-.6-.1-.9-.16c-.22-.07-.43-.17-.62-.29-.19-.13-.36-.29-.51-.46-.14-.18-.26-.38-.35-.59q-.135-.315-.18-.66c-.02-.14-.04-.28-.05-.42l-.03-.42c-.01-.14-.01-.29-.01-.43-.01-.14 0-.28 0-.42zm-12.22-1.35c.05-1.41.46-2.32 1.23-2.74.32-.11.65-.2.98-.28.33-.07.66-.13.99-.17.34-.05.68-.07 1.02-.08.33-.01.67 0 1.01.02.23-.01.45-.01.68-.01s.45.01.68.02l.68.03.68.06c.22.02.44.06.66.13.21.07.42.16.61.28s.36.26.52.42.3.34.41.53c.06.14.12.28.16.43.05.15.08.29.11.45a3.5 3.5 0 0 1 .06.91zM18.2 45v12c0 1.94.39 3.87 1.13 5.66.75 1.8 1.84 3.43 3.21 4.8s3 2.46 4.8 3.21c1.79.74 3.72 1.13 5.66 1.13h13.79c1.95 0 3.87-.38 5.67-1.12a14.85 14.85 0 0 0 8.03-8.01c.74-1.8 1.13-3.72 1.13-5.67v-4.18h8V57c0 1.94.39 3.87 1.13 5.67.75 1.79 1.84 3.42 3.22 4.8 1.37 1.37 3.01 2.46 4.8 3.2 1.8.75 3.73 1.13 5.67 1.13h13.77c1.92.03 3.83-.33 5.62-1.03 1.79-.71 3.42-1.76 4.81-3.1 1.39-1.33 2.5-2.93 3.27-4.69s1.19-3.66 1.24-5.58h-9.54c-.15.91-.46 1.79-.91 2.6-.46.81-1.05 1.53-1.76 2.13-.7.6-1.51 1.07-2.38 1.39s-1.78.48-2.71.48h-9c-1.03 0-2.06-.2-3.01-.6-.95-.39-1.82-.97-2.55-1.7s-1.31-1.6-1.7-2.56c-.39-.95-.59-1.98-.59-3.01v-3.31h34V39.56c0-1.94-.38-3.87-1.12-5.67a14.8 14.8 0 0 0-8.01-8.02c-1.79-.75-3.72-1.14-5.66-1.14H84.44c-1.95 0-3.87.39-5.67 1.13-1.8.75-3.43 1.84-4.81 3.22a14.6 14.6 0 0 0-3.21 4.81 14.7 14.7 0 0 0-1.13 5.67V45h-8v-5.44c0-1.95-.38-3.88-1.13-5.68-.74-1.79-1.84-3.43-3.21-4.81a15 15 0 0 0-4.81-3.21 14.8 14.8 0 0 0-5.68-1.13H33c-1.95 0-3.87.38-5.67 1.12-1.8.75-3.44 1.84-4.82 3.21a14.9 14.9 0 0 0-3.21 4.81 14.7 14.7 0 0 0-1.14 5.67v.8h9.38c.01-1.03.21-2.04.61-2.99.4-.94.98-1.8 1.71-2.52.73-.73 1.59-1.3 2.54-1.69s1.96-.59 2.99-.59h9c1.03 0 2.05.21 3 .6.95.4 1.82.97 2.55 1.7s1.3 1.6 1.7 2.55c.39.95.6 1.97.6 3V45zm9.38 7.82h24.7v3.33c0 1.03-.21 2.05-.6 3-.4.95-.97 1.82-1.7 2.55s-1.6 1.3-2.55 1.7c-.95.39-1.97.6-3 .6h-9c-1.03 0-2.05-.2-3.01-.6-.95-.4-1.82-.98-2.55-1.71s-1.3-1.6-1.7-2.55c-.39-.95-.59-1.98-.59-3.01zM79 40.41c0-1.03.2-2.04.59-2.99s.96-1.82 1.69-2.55a7.871 7.871 0 0 1 5.52-2.31h9c1.03 0 2.05.2 3.01.59.95.4 1.81.98 2.54 1.71s1.31 1.59 1.71 2.54c.39.96.59 1.98.59 3.01V45H79z" style="fill:#00537f"/></svg>

<svg xmlns="http://www.w3.org/2000/svg" viewBox="0 0 132 132">
	<style>
		tspan { white-space: pre }
		.shp0 { fill: #00537f } 
	</style>
	<path id="element" fill-rule="evenodd" class="shp0" d="M0 26.37C0 22.91 0.68 19.48 2.01 16.28C3.34 13.08 5.28 10.17 7.73 7.72C10.18 5.27 13.09 3.33 16.29 2.01C19.49 0.68 22.92 0 26.38 0L105.56 0C109.02 0 112.45 0.68 115.65 2.01C118.85 3.33 121.76 5.27 124.21 7.72C126.66 10.17 128.6 13.08 129.92 16.28C131.25 19.48 131.93 22.91 131.93 26.37L131.93 105.55C131.93 109.01 131.25 112.44 129.93 115.64C128.6 118.84 126.66 121.75 124.21 124.2C121.76 126.65 118.85 128.6 115.65 129.92C112.45 131.25 109.02 131.93 105.56 131.93L26.38 131.93C22.92 131.93 19.49 131.25 16.28 129.92C13.08 128.6 10.18 126.65 7.73 124.2C5.28 121.75 3.33 118.85 2.01 115.65C0.68 112.44 0 109.01 0 105.55L0 26.37ZM20.52 85.58L18.85 85.58L18.85 87.58L20.52 87.58L20.52 85.58ZM20.52 90.23L18.85 90.23L18.85 101.33L20.52 101.33L20.52 90.23ZM25.01 101.33L37.54 101.33L37.54 99.92L27.39 99.92L37.5 91.64L37.5 90.23L25.46 90.23L25.46 91.64L35.09 91.64L25.01 99.92L25.01 101.33ZM55.88 96.08C55.9 93.95 55.61 92.49 55.02 91.69C54.84 91.48 54.64 91.29 54.43 91.12C54.21 90.95 53.98 90.8 53.74 90.68C53.49 90.56 53.24 90.45 52.98 90.38C52.71 90.3 52.44 90.25 52.17 90.23C51.9 90.2 51.62 90.17 51.35 90.14C51.07 90.12 50.79 90.1 50.52 90.09C50.24 90.07 49.97 90.06 49.69 90.06C49.41 90.05 49.14 90.05 48.86 90.06C45.91 90.06 44.1 90.37 43.19 91.16C42.28 91.95 41.83 93.49 41.83 95.77C41.83 98.05 42.28 99.59 43.19 100.38C44.03 101.11 45.93 101.48 48.88 101.48C49.21 101.49 49.55 101.49 49.88 101.48C50.22 101.47 50.55 101.46 50.89 101.43C51.22 101.41 51.55 101.38 51.89 101.34C52.22 101.3 52.55 101.25 52.88 101.19C53.28 101.15 53.67 101.04 54.03 100.87C54.38 100.69 54.71 100.45 54.98 100.16C55.26 99.87 55.48 99.53 55.63 99.16C55.78 98.79 55.87 98.4 55.88 98L54.17 98C54.13 98.25 54.06 98.49 53.94 98.71C53.83 98.93 53.68 99.13 53.5 99.3C53.32 99.48 53.11 99.62 52.89 99.72C52.66 99.83 52.42 99.89 52.17 99.92C51.91 99.95 51.65 99.98 51.39 100.01C51.13 100.03 50.87 100.05 50.61 100.06C50.35 100.07 50.09 100.08 49.83 100.08C49.57 100.08 49.31 100.08 49.05 100.07C48.74 100.09 48.44 100.09 48.13 100.09C47.83 100.08 47.52 100.07 47.22 100.04C46.91 100.02 46.61 99.98 46.3 99.94C46 99.9 45.7 99.84 45.4 99.78C45.18 99.71 44.97 99.61 44.78 99.48C44.59 99.35 44.42 99.2 44.28 99.02C44.13 98.85 44.01 98.65 43.92 98.44C43.83 98.23 43.77 98.01 43.74 97.78C43.72 97.64 43.71 97.5 43.7 97.36C43.69 97.22 43.68 97.08 43.67 96.94C43.66 96.8 43.66 96.65 43.65 96.51C43.65 96.37 43.65 96.23 43.65 96.09L55.88 96.08ZM43.69 94.73C43.74 93.32 44.16 92.41 44.93 91.99C45.25 91.88 45.58 91.79 45.91 91.71C46.24 91.64 46.57 91.58 46.9 91.54C47.24 91.49 47.58 91.47 47.92 91.46C48.25 91.45 48.59 91.46 48.93 91.48C49.16 91.47 49.39 91.47 49.61 91.47C49.84 91.47 50.07 91.48 50.3 91.49C50.52 91.5 50.75 91.51 50.98 91.52C51.21 91.54 51.43 91.56 51.66 91.58C51.88 91.6 52.1 91.64 52.32 91.71C52.53 91.78 52.73 91.88 52.92 92C53.11 92.11 53.29 92.25 53.45 92.41C53.61 92.57 53.74 92.75 53.86 92.94C53.92 93.08 53.97 93.22 54.02 93.37C54.06 93.52 54.1 93.67 54.12 93.82C54.15 93.97 54.17 94.12 54.18 94.27C54.19 94.42 54.2 94.58 54.19 94.73L43.69 94.73ZM61.15 101.33L62.82 101.33L62.82 94.81C62.8 94.51 62.82 94.21 62.89 93.91C62.97 93.62 63.09 93.34 63.25 93.08C63.41 92.83 63.61 92.6 63.85 92.41C64.08 92.22 64.35 92.07 64.63 91.96C64.92 91.87 65.22 91.79 65.52 91.72C65.82 91.65 66.13 91.6 66.43 91.56C66.74 91.52 67.05 91.5 67.36 91.49C67.66 91.47 67.97 91.47 68.28 91.49C70.31 91.49 71.62 91.75 72.2 92.27C72.32 92.42 72.43 92.58 72.52 92.75C72.6 92.92 72.68 93.1 72.73 93.28C72.78 93.47 72.82 93.66 72.83 93.85C72.85 94.04 72.84 94.23 72.82 94.42L72.82 101.34L74.49 101.34L74.49 94.34C74.51 94.1 74.51 93.85 74.49 93.61C74.47 93.36 74.44 93.12 74.39 92.88C74.33 92.64 74.27 92.41 74.18 92.18C74.1 91.95 74 91.73 73.88 91.51C73.73 91.32 73.57 91.14 73.38 90.98C73.2 90.82 73 90.68 72.79 90.56C72.59 90.44 72.36 90.34 72.14 90.26C71.91 90.19 71.67 90.13 71.43 90.1C71.21 90.06 70.98 90.03 70.76 90.01C70.54 89.98 70.31 89.96 70.09 89.95C69.86 89.93 69.64 89.92 69.41 89.92C69.19 89.91 68.96 89.91 68.74 89.92C68.45 89.91 68.15 89.91 67.86 89.91C67.56 89.92 67.27 89.93 66.98 89.95C66.68 89.97 66.39 90 66.1 90.04C65.81 90.08 65.52 90.13 65.23 90.18C64.95 90.25 64.68 90.36 64.43 90.49C64.18 90.63 63.94 90.8 63.73 90.99C63.53 91.19 63.34 91.41 63.19 91.65C63.03 91.9 62.91 92.16 62.82 92.43L62.82 90.23L61.15 90.23L61.15 101.33ZM80.13 106L81.8 106L81.8 99.68C81.93 99.9 82.08 100.11 82.25 100.29C82.42 100.48 82.62 100.64 82.83 100.78C83.04 100.92 83.27 101.04 83.51 101.13C83.75 101.21 84 101.27 84.25 101.3C84.51 101.34 84.76 101.37 85.02 101.4C85.28 101.43 85.54 101.45 85.8 101.47C86.06 101.48 86.32 101.49 86.58 101.5C86.84 101.5 87.1 101.5 87.36 101.49C90.35 101.49 92.2 101.19 93.11 100.39C94.02 99.59 94.47 98.04 94.47 95.77C94.47 93.5 94.02 91.96 93.11 91.17C92.27 90.44 90.36 90.07 87.37 90.07C87.11 90.06 86.85 90.06 86.59 90.07C86.33 90.07 86.07 90.08 85.81 90.09C85.55 90.11 85.29 90.13 85.03 90.16C84.78 90.18 84.52 90.21 84.26 90.25C84.01 90.28 83.76 90.34 83.52 90.42C83.28 90.51 83.05 90.63 82.84 90.77C82.62 90.91 82.43 91.07 82.25 91.26C82.08 91.44 81.93 91.65 81.8 91.87L81.8 90.23L80.1 90.23L80.13 106ZM87.22 91.48C89.72 91.48 91.26 91.75 91.83 92.29C92.4 92.83 92.69 93.99 92.69 95.77C92.72 96.05 92.73 96.34 92.71 96.63C92.7 96.91 92.66 97.2 92.6 97.48C92.55 97.76 92.47 98.03 92.36 98.3C92.26 98.57 92.14 98.83 92 99.08C91.85 99.22 91.69 99.35 91.51 99.46C91.34 99.57 91.16 99.67 90.97 99.75C90.77 99.83 90.58 99.89 90.37 99.93C90.17 99.97 89.97 100 89.76 100C89.28 100.08 88.43 100.08 87.22 100.08C84.75 100.08 83.22 99.83 82.65 99.28C82.08 98.73 81.79 97.55 81.79 95.73C81.76 95.45 81.75 95.17 81.77 94.88C81.78 94.6 81.82 94.32 81.88 94.05C81.94 93.77 82.02 93.5 82.12 93.23C82.22 92.97 82.34 92.72 82.48 92.47C82.63 92.33 82.8 92.2 82.97 92.09C83.14 91.98 83.33 91.88 83.52 91.81C83.71 91.73 83.91 91.67 84.11 91.63C84.32 91.59 84.52 91.56 84.73 91.56C84.94 91.54 85.15 91.53 85.36 91.52C85.57 91.5 85.78 91.49 85.99 91.49C86.2 91.48 86.41 91.48 86.62 91.48C86.83 91.47 87.04 91.48 87.25 91.48L87.22 91.48ZM113.46 96.08C113.47 93.95 113.19 92.49 112.6 91.69C112.42 91.48 112.22 91.29 112.01 91.12C111.79 90.95 111.56 90.8 111.32 90.68C111.07 90.56 110.82 90.45 110.56 90.38C110.29 90.3 110.02 90.25 109.75 90.23C109.48 90.2 109.2 90.17 108.93 90.14C108.65 90.12 108.37 90.1 108.1 90.09C107.82 90.07 107.55 90.06 107.27 90.06C106.99 90.05 106.72 90.05 106.44 90.06C103.49 90.06 101.68 90.37 100.77 91.16C99.86 91.95 99.4 93.49 99.4 95.77C99.4 98.05 99.93 99.65 100.77 100.38C101.61 101.11 103.46 101.48 106.46 101.48C106.79 101.49 107.13 101.49 107.46 101.48C107.8 101.47 108.13 101.46 108.47 101.43C108.8 101.41 109.13 101.38 109.47 101.34C109.8 101.29 110.13 101.25 110.46 101.19C110.86 101.15 111.25 101.04 111.61 100.87C111.96 100.69 112.29 100.45 112.56 100.16C112.84 99.87 113.06 99.53 113.21 99.16C113.36 98.79 113.45 98.4 113.46 98L111.76 98C111.72 98.25 111.65 98.49 111.53 98.71C111.42 98.93 111.27 99.13 111.09 99.3C110.91 99.48 110.7 99.62 110.48 99.72C110.25 99.83 110.01 99.89 109.76 99.92C109.5 99.95 109.24 99.98 108.98 100C108.72 100.03 108.46 100.05 108.2 100.06C107.94 100.07 107.68 100.08 107.41 100.08C107.15 100.08 106.89 100.08 106.63 100.07C106.33 100.09 106.02 100.09 105.71 100.09C105.41 100.08 105.1 100.07 104.8 100.04C104.5 100.02 104.19 99.98 103.89 99.94C103.59 99.9 103.29 99.84 102.99 99.78C102.77 99.71 102.56 99.61 102.37 99.49C102.18 99.36 102.01 99.2 101.86 99.03C101.72 98.85 101.6 98.65 101.51 98.44C101.42 98.23 101.36 98.01 101.33 97.78C101.31 97.64 101.29 97.5 101.28 97.36C101.27 97.22 101.26 97.08 101.25 96.94C101.24 96.8 101.24 96.65 101.24 96.51C101.23 96.37 101.24 96.23 101.24 96.09L113.46 96.08ZM101.24 94.73C101.29 93.32 101.7 92.41 102.47 91.99C102.79 91.88 103.12 91.79 103.45 91.71C103.78 91.64 104.11 91.58 104.44 91.54C104.78 91.49 105.12 91.47 105.46 91.46C105.79 91.45 106.13 91.46 106.47 91.48C106.7 91.47 106.92 91.47 107.15 91.47C107.38 91.47 107.6 91.48 107.83 91.49C108.06 91.5 108.29 91.51 108.51 91.52C108.74 91.54 108.96 91.56 109.19 91.58C109.41 91.6 109.63 91.64 109.85 91.71C110.06 91.78 110.27 91.87 110.46 91.99C110.65 92.11 110.82 92.25 110.98 92.41C111.14 92.57 111.28 92.75 111.39 92.94C111.45 93.08 111.51 93.22 111.55 93.37C111.6 93.52 111.63 93.66 111.66 93.82C111.69 93.97 111.71 94.12 111.72 94.27C111.73 94.42 111.73 94.58 111.72 94.73L101.24 94.73ZM18.2 45L18.2 57C18.2 58.94 18.59 60.87 19.33 62.66C20.08 64.46 21.17 66.09 22.54 67.46C23.91 68.83 25.54 69.92 27.34 70.67C29.13 71.41 31.06 71.8 33 71.8L46.79 71.8C48.74 71.8 50.66 71.42 52.46 70.68C54.26 69.93 55.89 68.84 57.27 67.47C58.65 66.1 59.74 64.46 60.49 62.67C61.23 60.87 61.62 58.95 61.62 57L61.62 52.82L69.62 52.82L69.62 57C69.62 58.94 70.01 60.87 70.75 62.67C71.5 64.46 72.59 66.09 73.97 67.47C75.34 68.84 76.98 69.93 78.77 70.67C80.57 71.42 82.5 71.8 84.44 71.8L98.21 71.8C100.13 71.83 102.04 71.47 103.83 70.77C105.62 70.06 107.25 69.01 108.64 67.67C110.03 66.34 111.14 64.74 111.91 62.98C112.68 61.22 113.1 59.32 113.15 57.4L103.61 57.4C103.46 58.31 103.15 59.19 102.7 60C102.24 60.81 101.65 61.53 100.94 62.13C100.24 62.73 99.43 63.2 98.56 63.52C97.69 63.84 96.78 64 95.85 64L86.85 64C85.82 64 84.79 63.8 83.84 63.4C82.89 63.01 82.02 62.43 81.29 61.7C80.56 60.97 79.98 60.1 79.59 59.14C79.2 58.19 79 57.16 79 56.13L79 52.82L113 52.82L113 39.56C113 37.62 112.62 35.69 111.88 33.89C111.14 32.1 110.05 30.46 108.67 29.08C107.3 27.71 105.67 26.61 103.87 25.87C102.08 25.12 100.15 24.73 98.21 24.73L84.44 24.73C82.49 24.73 80.57 25.12 78.77 25.86C76.97 26.61 75.34 27.7 73.96 29.08C72.58 30.45 71.49 32.09 70.75 33.89C70 35.69 69.62 37.61 69.62 39.56L69.62 45L61.62 45L61.62 39.56C61.62 37.61 61.24 35.68 60.49 33.88C59.75 32.09 58.65 30.45 57.28 29.07C55.9 27.7 54.26 26.6 52.47 25.86C50.67 25.11 48.74 24.73 46.79 24.73L33 24.73C31.05 24.73 29.13 25.11 27.33 25.85C25.53 26.6 23.89 27.69 22.51 29.06C21.14 30.44 20.04 32.07 19.3 33.87C18.55 35.67 18.16 37.59 18.16 39.54L18.16 40.34L27.54 40.34C27.55 39.31 27.75 38.3 28.15 37.35C28.55 36.41 29.13 35.55 29.86 34.83C30.59 34.1 31.45 33.53 32.4 33.14C33.35 32.75 34.36 32.55 35.39 32.55L44.39 32.55C45.42 32.55 46.44 32.76 47.39 33.15C48.34 33.55 49.21 34.12 49.94 34.85C50.67 35.58 51.24 36.45 51.64 37.4C52.03 38.35 52.24 39.37 52.24 40.4L52.24 45L18.2 45ZM27.58 52.82L52.28 52.82L52.28 56.15C52.28 57.18 52.07 58.2 51.68 59.15C51.28 60.1 50.71 60.97 49.98 61.7C49.25 62.43 48.38 63 47.43 63.4C46.48 63.79 45.46 64 44.43 64L35.43 64C34.4 64 33.38 63.8 32.42 63.4C31.47 63 30.6 62.42 29.87 61.69C29.14 60.96 28.57 60.09 28.17 59.14C27.78 58.19 27.58 57.16 27.58 56.13L27.58 52.82ZM79 40.41C79 39.38 79.2 38.37 79.59 37.42C79.98 36.47 80.55 35.6 81.28 34.87C82 34.15 82.86 33.57 83.81 33.17C84.76 32.77 85.77 32.57 86.8 32.56L95.8 32.56C96.83 32.56 97.85 32.76 98.81 33.15C99.76 33.55 100.62 34.13 101.35 34.86C102.08 35.59 102.66 36.45 103.06 37.4C103.45 38.36 103.65 39.38 103.65 40.41L103.65 45L79 45L79 40.41Z" />
</svg>
